img/icons/arrow-back.svg

<svg width="32" height="32" viewBox="0 0 32 32" fill="none" xmlns="http://www.w3.org/2000/svg">
<path d="M6.6666 17.3334H22.4799L17.6399 23.1467C17.4136 23.419 17.3047 23.77 17.3372 24.1226C17.3697 24.4752 17.541 24.8004 17.8133 25.0267C18.0856 25.253 18.4366 25.3619 18.7892 25.3294C19.1417 25.2969 19.4669 25.1256 19.6933 24.8534L26.3599 16.8534C26.4048 16.7897 26.4449 16.7229 26.4799 16.6534C26.4799 16.5867 26.4799 16.5467 26.5733 16.48C26.6337 16.3271 26.6653 16.1644 26.6666 16C26.6653 15.8356 26.6337 15.6729 26.5733 15.52C26.5733 15.4534 26.5733 15.4134 26.4799 15.3467C26.4449 15.2772 26.4048 15.2103 26.3599 15.1467L19.6933 7.14669C19.5679 6.99618 19.4109 6.87514 19.2335 6.79218C19.056 6.70921 18.8625 6.66637 18.6666 6.66669C18.3551 6.66608 18.0531 6.77458 17.8133 6.97335C17.6783 7.08529 17.5666 7.22275 17.4848 7.37788C17.403 7.53301 17.3526 7.70275 17.3365 7.87739C17.3204 8.05203 17.339 8.22812 17.391 8.39559C17.4431 8.56306 17.5277 8.71862 17.6399 8.85335L22.4799 14.6667H6.6666C6.31298 14.6667 5.97384 14.8072 5.72379 15.0572C5.47374 15.3073 5.33327 15.6464 5.33327 16C5.33327 16.3536 5.47374 16.6928 5.72379 16.9428C5.97384 17.1929 6.31298 17.3334 6.6666 17.3334Z" fill="#F2F2F2"/>
</svg>

<svg width="32" height="32" viewBox="0 0 32 32" fill="none" xmlns="http://www.w3.org/2000/svg"><path d="M6.667 17.333H22.48l-4.84 5.814a1.335 1.335 0 002.053 1.706l6.667-8c.045-.063.085-.13.12-.2 0-.066 0-.106.093-.173.06-.153.092-.316.094-.48a1.335 1.335 0 00-.094-.48c0-.067 0-.107-.093-.173a1.576 1.576 0 00-.12-.2l-6.667-8a1.334 1.334 0 00-1.88-.174 1.334 1.334 0 00-.173 1.88l4.84 5.814H6.667a1.334 1.334 0 000 2.666z" fill="#F2F2F2"/></svg>
